X:72
T:Bonnie Lossie
C:J Scott Skinner
L:1/8
M:4/4
S:Colin Hume's website,  colinhume.com  - chords can also be printed below the stave.
Q:1/4=112
%%MIDI program 22
%%MIDI bassprog 33
K:F
P:A
[| c | "F"a>g f>e "Bb"e<d d<f | "F"c<A G>F "C"G2-G>c | "F"a>g f>c "Bb"ed df | "F"c<a "C7"g>f "F"f2 fc |
"F"a>g f>e "Bb"e<d d<f | "F"c<A "G7"G>F "C"G2-G>c | "F"a>g f>c "Bb"ed df | "F"c<a "C7"g>f "F"f2 fB |]
P:B
[| "F7"A>B c>A "Bb"B2 B<d | "F"c<A G>F "C7"G2 G>B | "F"A>B "F7"c>A "Bb"B>c d>B | "F"c<f "C7"A>G "F"F2-F>B |
"F7"A>B c>A "Bb"B2 B<d | "F"c<A "G7"G>F "C7"G2 G>B | "F"A/B/c "F7"F/G/A "Bb"(3Bc^c "G7"(3dgf | "C7"(3edc (3BAG "F"F2 F |]

